logo-icons/meal.svg

<svg xmlns="http://www.w3.org/2000/svg" viewBox="0 0 167.6 124" enable-background="new 0 0 167.6 124"><style type="text/css">.st0{fill:#0F1131;}</style><g id="Text"><path class="st0" d="M167.6 5.3v103.2c0 2.6-2.7 4.8-5.5 4.8s-5.3-2.4-5.3-5l2.1-50h-6.7c-1.4 0-1.6-.7-1.6-2.1v-37.5c0-8.1 6.6-14.7 15.3-14.7.4 0 .9.1 1.2.4s.5.5.5.9zM15.8 4c.7 0 1.4.6 1.4 1.3v24c0 2.3-2.3 4.4-4.5 5.6l1.4 73.7c0 2.6-2.2 4.7-5 4.7h-.7c-2.9 0-5.2-2.2-5.2-4.9l1.8-73.5c-1.8-1.2-5-3.3-5-5.6v-24c0-.7.6-1.3 1.4-1.3h.5c.7 0 1.4.6 1.4 1.3v20.7h1.7v-20.7c0-.7.6-1.3 1.3-1.3.7 0 1.4.6 1.4 1.3v20.7h1.8v-20.7c0-.7.6-1.3 1.4-1.3h.5c.7 0 1.4.6 1.4 1.3v20.7h1.2v-20.7c0-.7.6-1.3 1.3-1.3h.5zM133.2 62c0 28.3-22.9 51.2-51.2 51.2-28.3 0-51.2-22.9-51.2-51.2 0-28.3 22.9-51.2 51.2-51.2 28.3 0 51.2 22.9 51.2 51.2zM82 0c-34.2 0-62 27.8-62 62s27.8 62 62 62 62-27.8 62-62-27.8-62-62-62zm0 117.5c-30.6 0-55.5-24.8-55.5-55.5s24.8-55.5 55.5-55.5 55.5 24.8 55.5 55.5-24.9 55.5-55.5 55.5z"/></g></svg>

<?xml version="1.0" encoding="utf-8"?>
<!-- Generator: Adobe Illustrator 19.1.0, SVG Export Plug-In . SVG Version: 6.00 Build 0)  -->
<!DOCTYPE svg PUBLIC "-//W3C//DTD SVG 1.1//EN" "http://www.w3.org/Graphics/SVG/1.1/DTD/svg11.dtd">
<svg version="1.1" xmlns="http://www.w3.org/2000/svg" xmlns:xlink="http://www.w3.org/1999/xlink" x="0px" y="0px"
	 viewBox="0 0 167.6 124" style="enable-background:new 0 0 167.6 124;" xml:space="preserve">
<style type="text/css">
	.st0{fill:#0F1131;}
</style>
<g id="Layer_1">
</g>
<g id="Text">
	<g>
		<g>
			<path class="st0" d="M167.6,5.3v103.2c0,2.6-2.7,4.8-5.5,4.8s-5.3-2.4-5.3-5l2.1-50h-6.7c-1.4,0-1.6-0.7-1.6-2.1V18.7
				c0-8.1,6.6-14.7,15.3-14.7c0.4,0,0.9,0.1,1.2,0.4S167.6,4.9,167.6,5.3z"/>
			<path class="st0" d="M15.8,4c0.7,0,1.4,0.6,1.4,1.3v24c0,2.3-2.3,4.4-4.5,5.6l1.4,73.7c0,2.6-2.2,4.7-5,4.7H8.4
				c-2.9,0-5.2-2.2-5.2-4.9L5,34.9c-1.8-1.2-5-3.3-5-5.6v-24C0,4.6,0.6,4,1.4,4h0.5c0.7,0,1.4,0.6,1.4,1.3v20.7H5V5.3
				C5,4.6,5.6,4,6.3,4h0c0.7,0,1.4,0.6,1.4,1.3v20.7h1.8V5.3c0-0.7,0.6-1.3,1.4-1.3h0.5c0.7,0,1.4,0.6,1.4,1.3v20.7H14V5.3
				C14,4.6,14.6,4,15.3,4H15.8z"/>
		</g>
		<g>
			<path class="st0" d="M133.2,62c0,28.3-22.9,51.2-51.2,51.2c-28.3,0-51.2-22.9-51.2-51.2c0-28.3,22.9-51.2,51.2-51.2
				C110.3,10.8,133.2,33.7,133.2,62z"/>
			<path class="st0" d="M82,0C47.8,0,20,27.8,20,62c0,34.2,27.8,62,62,62c34.2,0,62-27.8,62-62C144,27.8,116.2,0,82,0z M82,117.5
				c-30.6,0-55.5-24.8-55.5-55.5S51.3,6.5,82,6.5s55.5,24.8,55.5,55.5S112.6,117.5,82,117.5z"/>
		</g>
	</g>
</g>
</svg>
